X:1
T:Lord, Source of All Blessing
T:Lord, Source of All Blessing
T:Virgil Corydon Taylor, 1850
T:Richard W. Adams, 2001
T:© 2001 Richard W. Adams. Reproduce or publish freely for Christian worship or devotions. Courtesy of the Cyber Hymnal™
C:Virgil Corydon Taylor, 1850
Z:© 2001 Richard W. Adams. Reproduce or publish freely for Christian worship or devotions.
Z:Courtesy of the Cyber Hymnal™
%%score ( 1 2 ) ( 3 4 )
L:1/8
M:3/4
K:Ab
V:1 treble 
V:2 treble 
V:3 bass 
V:4 bass 
V:1
 [CE]2 | [CE]2 [EA]2 [GB]2 | [Ac]4 [EA]2 | B2 A2 [EB]2 | [Ec]4 [Ec]2 | d3 c [EB]2 | %6
w: 1.~Lord,|source of all|bless- ing,|bless us in-|deed; For|Yours is the|
w: 2.~En-|large, too, our|boun- daries,|so that we|may Be-|gin great- er|
w: 3.~Lord,|while are are|striv- ing,|give us Your|hand To|help spread Your|
 [Ec]2 [CA]2 [Ec]2 | (e3 d) [Ec]2 | [Ed]4 [CE]2 | [CE]2 [EA]2 [GB]2 | [Ac]4 [EA]2 | B2 E2 [EB]2 | %12
w: boun- ty, and|ours~is * the|need; We|trust to Your|wis- dom,|in this re-|
w: work for Your|kingdom * this|day; May|we be a|bless- ing,|to those who|
w: Wo- rd through-|out * the|land; Let|us do not|e- vil,|seek on- ly|
 [Ec]4 [Ac]2 | [Ac]2 [FB]2 [Bd]2 | [Ac]4 [FB]2 | [EA]4 [EG]2 | [EA]4 |] %17
w: quest, For|You give Your|child- ren|all the|best.|
w: seek For|mean- ing in|lives where|hope is|weak.|
w: right, And|ush- er in|dawn to|dark- est|night.|
V:2
 x2 | x6 | x6 | E4 x2 | x6 | E4 x2 | x6 | E4 x2 | x6 | x6 | x6 | E4 x2 | x6 | x6 | x6 | x6 | x4 |] %17
V:3
 [A,,A,]2 | A,2 C2 [E,E]2 | [A,E]4 [C,A,]2 | G,2 F,2 [E,G,]2 | A,4 [A,,A,]2 | B,3 A, [E,G,]2 | %6
 A,2 E,2 [A,,A,]2 | (C3 B,) [A,,A,]2 | [E,G,]4 [A,,A,]2 | A,2 C2 [E,E]2 | [A,E]4 [C,A,]2 | %11
 [E,G,]4 [E,G,]2 | A,4 [A,E]2 | [A,E]2 [D,D]2 [B,,F]2 | [C,E]4 [D,D]2 | [E,C]4 [E,B,]2 | [A,,C]4 |] %17
V:4
 x2 | A,,4 x2 | x6 | E,4 x2 | x6 | E,4 x2 | A,,4 x2 | A,4 x2 | x6 | A,,4 x2 | x6 | x6 | x6 | x6 | %14
 x6 | x6 | x4 |] %17

